X: 10532
M: C|
L: 1/8
K: Bb	% and Gm
(DG)BG dGBG | (DG).B.G AFcA |
(DG)BG dGBG | cAFA BGGB |\
(DG)BG dGBG | (DG)BG AFcA |\
(DG).B.d BdBG | cAFA BGG |]


